X: 5586
T: Bushmills Fancy
R: hornpipe
M: 4/4
K: Eminor
d>c|:B>GD>B, C2B,>C|D>E (3FED G2 B>c|d>g (3ggg f>dc>A|d>Bc>A B>GA>F|
G>FD>B, C2 B,>C|D>E (3FED G2 B>c|d>g (3ggg f>dc>A|1 d>Bc>A G2 d>c:|2 d>BA>F G2 B>c||
|:d>d g>e d>BG>B|c>Bc>e A>GF>E|D2 (3EFG d>B (3cBA|d>ef>g a>fdf|
g>g (3efg a>fd>f|g>fg>a f>dd>c|A>B (3cBA d>cA>F|1 G2G>F G2 B>c:|2 G2G>F G2 z2||

